<?xml version="1.0" encoding="UTF-8"?>
<map version="1.10" tiledversion="1.11.2" orientation="orthogonal" renderorder="right-down" width="15" height="15" tilewidth="16" tileheight="16" infinite="0" nextlayerid="8" nextobjectid="1">
 <tileset firstgid="1" source="aaaa.tsx"/>
 <layer id="5" name="BKG" width="15" height="15">
  <data encoding="csv">
42,42,42,42,42,42,42,42,42,42,42,42,42,42,42,
42,42,42,42,42,42,42,42,42,42,42,42,42,42,42,
42,42,42,42,42,42,42,42,42,42,42,42,42,42,42,
42,42,42,42,42,42,42,42,42,42,42,42,42,42,42,
42,42,42,42,42,42,42,42,42,42,42,42,42,42,42,
42,42,42,42,42,42,42,42,42,42,42,42,42,42,42,
42,42,42,42,42,42,42,42,42,42,42,42,42,42,42,
42,42,42,42,42,42,42,42,42,42,42,42,42,42,42,
42,42,42,42,42,42,42,42,42,42,42,42,42,42,42,
42,42,42,42,42,42,42,42,42,42,42,42,42,42,42,
42,42,42,42,42,42,42,42,42,42,42,42,42,42,42,
42,42,42,42,42,42,42,42,42,42,42,42,42,42,42,
42,42,42,42,42,42,42,42,42,42,42,42,42,42,42,
42,42,42,42,42,42,42,42,42,42,42,42,42,42,42,
42,42,42,42,42,42,42,42,42,42,42,42,42,42,42
</data>
 </layer>
 <layer id="1" name="SPAWN" width="15" height="15">
  <data encoding="csv">
0,0,0,0,0,0,0,0,0,0,0,0,0,0,0,
0,0,0,0,0,0,0,0,0,0,0,0,0,0,0,
0,0,0,0,0,0,0,0,0,0,0,0,0,0,0,
0,0,0,0,0,0,0,0,0,0,0,0,0,0,0,
0,0,0,0,0,0,0,0,0,0,0,0,0,0,0,
0,0,0,0,0,0,0,0,0,0,0,0,0,0,0,
0,0,0,0,0,0,0,0,0,0,0,0,0,0,0,
0,0,0,0,0,0,0,0,0,0,0,0,0,0,0,
0,0,0,0,0,0,0,0,0,0,0,0,0,0,0,
0,0,0,0,0,0,0,0,0,0,0,0,0,0,0,
0,0,0,0,0,0,0,0,0,0,0,0,0,0,0,
0,0,0,0,0,0,0,0,0,0,0,49,0,0,0,
0,0,0,0,0,0,0,0,0,0,0,0,0,0,0,
0,0,0,0,0,0,0,0,0,0,0,0,0,0,0,
0,0,0,0,0,0,0,0,0,0,0,0,0,0,0
</data>
 </layer>
 <layer id="4" name="WALLS" width="15" height="15">
  <data encoding="csv">
27,25,34,34,27,33,25,35,26,26,25,26,34,34,25,
34,35,26,27,34,27,25,34,26,26,26,33,26,33,34,
33,34,27,27,33,27,26,25,35,35,34,35,35,25,25,
27,25,35,26,26,27,26,35,34,27,27,35,35,33,35,
26,27,33,34,25,26,34,34,34,25,35,33,35,26,33,
26,26,35,33,35,35,25,34,35,34,35,26,27,26,33,
27,33,25,34,26,27,26,35,26,33,35,25,25,25,25,
4,18,18,18,18,18,18,18,18,18,18,18,18,18,5,
11,0,0,0,0,0,0,0,0,0,0,0,0,0,9,
11,0,0,0,0,0,0,0,0,0,0,0,0,0,9,
11,0,0,0,0,0,0,0,0,0,0,0,0,0,9,
11,0,0,0,0,0,0,0,0,0,0,0,0,0,9,
11,0,0,0,0,0,0,0,0,0,0,0,0,0,9,
12,2,2,2,2,2,2,2,2,2,2,2,2,2,13,
34,26,25,34,26,35,35,34,34,26,33,33,33,26,33
</data>
 </layer>
 <layer id="6" name="GOAL" width="15" height="15">
  <data encoding="csv">
0,0,0,0,0,0,0,0,0,0,0,0,0,0,0,
0,0,0,0,0,0,0,0,0,0,0,0,0,0,0,
0,0,0,0,0,0,0,0,0,0,0,0,0,0,0,
0,0,0,0,0,0,0,0,0,0,0,0,0,0,0,
0,0,0,0,0,0,0,0,0,0,0,0,0,0,0,
0,0,0,0,0,0,0,0,0,0,0,0,0,0,0,
0,0,0,0,0,0,0,0,0,0,0,0,0,0,0,
0,0,0,0,0,0,0,0,0,0,0,0,0,0,0,
0,0,0,0,0,0,0,0,0,0,0,0,0,0,0,
0,0,0,0,0,0,0,0,0,0,0,0,0,0,0,
0,0,0,0,0,0,0,0,0,0,0,0,0,0,0,
0,50,0,0,0,0,0,0,0,0,0,0,0,0,0,
0,0,0,0,0,0,0,0,0,0,0,0,0,0,0,
0,0,0,0,0,0,0,0,0,0,0,0,0,0,0,
0,0,0,0,0,0,0,0,0,0,0,0,0,0,0
</data>
 </layer>
 <layer id="7" name="DEATH" width="15" height="15">
  <data encoding="csv">
0,0,0,0,0,0,0,0,0,0,0,0,0,0,0,
0,0,0,0,0,0,0,0,0,0,0,0,0,0,0,
0,0,0,0,0,0,0,0,0,0,0,0,0,0,0,
0,0,0,0,0,0,0,0,0,0,0,0,0,0,0,
0,0,0,0,0,0,0,0,0,0,0,0,0,0,0,
0,0,0,0,0,0,0,0,0,0,0,0,0,0,0,
0,0,0,0,0,0,0,0,0,0,0,0,0,0,0,
0,0,0,0,0,0,0,0,0,0,0,0,0,0,0,
0,0,0,0,0,0,0,0,0,0,0,0,0,0,0,
0,0,0,0,0,0,0,0,0,0,0,0,0,0,0,
0,0,0,0,0,0,0,0,0,0,0,0,0,0,0,
0,0,0,0,53,0,0,53,53,0,0,0,0,0,0,
0,0,0,0,53,0,0,53,53,0,0,0,0,0,0,
0,0,0,0,0,0,0,0,0,0,0,0,0,0,0,
0,0,0,0,0,0,0,0,0,0,0,0,0,0,0
</data>
 </layer>
</map>
