<?xml version="1.0" encoding="UTF-8"?>
<map version="1.10" tiledversion="1.11.2" orientation="orthogonal" renderorder="right-down" width="15" height="15" tilewidth="16" tileheight="16" infinite="0" nextlayerid="6" nextobjectid="1">
 <tileset firstgid="1" source="VETOTRAZTOCHNO.tsx"/>
 <tileset firstgid="65" source="aaaa.tsx"/>
 <layer id="5" name="BKG" width="15" height="15">
  <data encoding="csv">
106,106,106,106,106,106,106,106,106,106,106,106,106,106,106,
106,106,106,106,106,106,106,106,106,106,106,106,106,106,106,
106,106,106,106,106,106,106,106,106,106,106,106,106,106,106,
106,106,106,106,106,106,106,106,106,106,106,106,106,106,106,
106,106,106,106,106,106,106,106,106,106,106,106,106,106,106,
106,106,106,106,106,106,106,106,106,106,106,106,106,106,106,
106,106,106,106,106,106,106,106,106,106,106,106,106,106,106,
106,106,106,106,106,106,106,106,106,106,106,106,106,106,106,
106,106,106,106,106,106,106,106,106,106,106,106,106,106,106,
106,106,106,106,106,106,106,106,106,106,106,106,106,106,106,
106,106,106,106,106,106,106,106,106,106,106,106,106,106,106,
106,106,106,106,106,106,106,106,106,106,106,106,106,106,106,
106,106,106,106,106,106,106,106,106,106,106,106,106,106,106,
106,106,106,106,106,106,106,106,106,106,106,106,106,106,106,
106,106,106,106,106,106,106,106,106,106,106,106,106,106,106
</data>
 </layer>
 <layer id="1" name="SPAWN" width="15" height="15">
  <data encoding="csv">
0,0,0,0,0,0,0,0,0,0,0,0,0,0,0,
0,0,0,0,0,0,0,0,0,0,0,0,0,0,0,
0,0,0,0,0,0,0,0,0,0,0,0,0,0,0,
0,0,0,0,0,0,0,0,0,0,0,0,0,0,0,
0,0,0,0,0,0,0,0,0,0,0,0,0,0,0,
0,0,0,0,0,0,0,0,0,0,0,0,0,0,0,
0,0,0,0,0,0,0,0,0,0,0,0,0,0,0,
0,0,0,0,0,0,0,0,0,0,0,0,0,0,0,
0,0,0,0,0,0,0,0,0,0,0,0,0,0,0,
0,0,0,0,0,0,0,0,0,0,0,0,0,0,0,
0,0,0,0,0,0,0,0,0,0,0,0,0,0,0,
0,0,49,0,0,0,0,0,0,0,0,0,0,0,0,
0,0,0,0,0,0,0,0,0,0,0,0,0,0,0,
0,0,0,0,0,0,0,0,0,0,0,0,0,0,0,
0,0,0,0,0,0,0,0,0,0,0,0,0,0,0
</data>
 </layer>
 <layer id="2" name="WALLS" width="15" height="15">
  <data encoding="csv">
68,82,82,82,82,82,82,82,82,82,82,82,82,82,69,
75,0,0,0,0,0,0,0,0,0,0,0,0,0,73,
75,0,0,0,0,0,0,0,0,0,0,0,0,0,73,
75,0,0,0,0,0,0,84,66,66,66,66,66,66,9,
75,0,0,0,0,0,0,0,0,0,0,0,0,0,9,
75,0,0,0,0,0,0,0,0,0,0,0,0,0,9,
76,66,0,0,0,66,66,66,66,67,0,0,0,0,9,
68,82,82,82,82,82,82,82,82,83,0,0,0,0,9,
75,0,0,0,0,0,0,0,0,0,0,0,0,84,9,
75,0,0,0,0,0,0,0,0,0,0,0,0,0,9,
75,0,0,0,0,0,0,0,0,0,0,0,0,0,9,
75,0,0,0,0,0,0,0,0,0,0,0,0,0,9,
76,2,2,2,2,2,2,2,2,2,2,2,0,0,13,
0,0,0,0,0,0,0,0,0,0,0,0,0,0,0,
0,0,0,0,0,0,0,0,0,0,0,0,0,0,0
</data>
 </layer>
 <layer id="4" name="GOAL" width="15" height="15">
  <data encoding="csv">
0,0,0,0,0,0,0,0,0,0,0,0,0,0,0,
0,0,0,0,0,0,0,0,0,0,0,0,0,0,0,
0,0,0,0,0,0,0,0,0,0,0,0,0,114,0,
0,0,0,0,0,0,0,0,0,0,0,0,0,0,0,
0,0,0,0,0,0,0,0,0,0,0,0,0,0,0,
0,0,0,0,0,0,0,0,0,0,0,0,0,0,0,
0,0,0,0,0,0,0,0,0,0,0,0,0,0,0,
0,0,0,0,0,0,0,0,0,0,0,0,0,0,0,
0,0,0,0,0,0,0,0,0,0,0,0,0,0,0,
0,0,0,0,0,0,0,0,0,0,0,0,0,0,0,
0,0,0,0,0,0,0,0,0,0,0,0,0,0,0,
0,0,0,0,0,0,0,0,0,0,0,0,0,0,0,
0,0,0,0,0,0,0,0,0,0,0,0,0,0,0,
0,0,0,0,0,0,0,0,0,0,0,0,0,0,0,
0,0,0,0,0,0,0,0,0,0,0,0,0,0,0
</data>
 </layer>
 <layer id="3" name="DEATH" width="15" height="15">
  <data encoding="csv">
0,0,0,0,0,0,0,0,0,0,0,0,0,0,0,
0,0,0,0,0,0,0,0,0,0,0,0,0,0,0,
0,0,0,0,0,0,0,0,0,0,0,0,0,0,0,
0,0,0,0,0,0,0,0,0,0,0,0,0,0,0,
0,0,0,0,0,0,0,0,0,0,0,0,0,0,0,
0,0,0,0,0,0,0,0,0,0,0,0,0,0,0,
0,0,92,92,92,0,0,0,0,0,0,0,0,0,0,
0,0,0,0,0,0,0,0,0,0,0,0,0,0,0,
0,0,0,0,0,0,0,0,0,0,0,0,0,0,0,
0,0,0,0,0,0,0,0,0,0,0,0,0,0,0,
0,0,0,0,0,0,0,53,0,0,0,0,0,0,0,
0,0,0,0,0,0,0,53,0,0,0,0,0,0,0,
0,0,0,0,0,0,0,0,0,0,0,0,28,28,0,
36,36,36,36,36,36,36,36,36,36,36,36,36,36,36,
36,36,36,36,36,36,36,36,36,36,36,36,36,36,36
</data>
 </layer>
</map>
